X: 083
M: C|
L: 1/8
K: G
V: 1
c |\
dgBd ceAc | {c}BABG {G}FEFD | G2DB, CEAc | BGDF G/G/G G |]
V: 2 clef=bass middle=d
z |\
g2G2 d2f2 | g2G2 g2G2 | g2g2 d2d2 | g2d2 G2G :|
z |\
g2b2 c'2a2 | g2g2 d2d2 | g2g2 c'2a2 | g2d2 G2G ||
z |\
b2g2 a2c'2 | g2G2 d2D2 | G2B2 c2^c2 | d2D2 G2G |]


